X: 39170
T: Swift, The
R: jig
M: 6/8
K: Amajor
e2 e|e2c c2A|A2F d2d|E2E EFG|B2A e2e|
e2c c2A|A2F d2d|E2E EFG|A2 z||
c2 B|B2B ^d2f|g2e e2B|c2A FE^D|F2E f2e|
e2 e f2g|a2e c2A|Fdc BAG|A2 z||
e2e|edc cBA|f2D d2B|AGF EeG|B2A e2e|
edc cBA|f2D d2B|AGF EeG|A2 z||
c2B|B^df dBA|G2B e2^d|cag fb^d|f2e EeE|
dBG EFD|C2e a2C|Dfe dBG|A2 z||
e2e|ec'b aga|g2f f2e|egb d'bg|b2a e2e|
ec'b aga|g2f f2e|egb d'bg|a2 z||
c'2 b|baf ^dBA|GBe ge^d|cAG FB^D|F2E e2e|
dBg efd|cec AEC|D2f E2g|a2 z||
e2 e|e2c c2A|A2F d2d|E2E EFG|B2A e2e|
e2c c2A|A2F d2d|E2E EFG|A2 z||
c2 B|B2B ^d2f|g2e e2B|c2A FE^D|F2E f2e|
e2 e f2g|a2e c2A|Fdc BAG|A2 z||

